icons/lines/iost--iost-.svg

<svg xmlns="http://www.w3.org/2000/svg" width="24" height="24" viewBox="0 0 24 24" fill="none" stroke="currentColor" stroke-width="2" stroke-linecap="round" stroke-linejoin="round" >
  <path d="M11 2.59999L4.5 6.39999C3.9 6.79999 3.5 7.39999 3.5 8.09999V15.8C3.5 16.5 3.9 17.2 4.5 17.5L11 21.3C11.6 21.7 12.4 21.7 13 21.3L19.5 17.5C20.1 17.1 20.5 16.5 20.5 15.8V8.09999C20.5 7.39999 20.1 6.69999 19.5 6.39999L13 2.59999C12.4 2.19999 11.6 2.19999 11 2.59999Z" stroke-miterlimit="10"/>
  <path d="M17 9L12 6L7 9L17 15L12 18L7 15" stroke-miterlimit="10"/>
  <path d="M11.5 10L9.5 12" stroke-miterlimit="10"/>
  <path d="M14.5 12L12.5 14" stroke-miterlimit="10"/>
  </svg>

<svg xmlns="http://www.w3.org/2000/svg" width="24" height="24" viewBox="0 0 24 24" fill="none" stroke="currentColor" stroke-width="2" stroke-linecap="round" stroke-linejoin="round">
  <path d="m11.5 10-2 2" />
  <path d="m14.5 12-2 2" />
  <path d="m17 9-5-3-5 3 10 6-5 3-5-3" />
  <path d="M4.5 6.4c-.6.4-1 1-1 1.7v7.7c0 .7.4 1.4 1 1.7l6.5 3.8a1.82 1.82 0 0 0 2 0l6.5-3.8c.6-.4 1-1 1-1.7V8.1c0-.7-.4-1.4-1-1.7L13 2.6a1.82 1.82 0 0 0-2 0z" />
</svg>
